Default.style/bank.svg

<?xml version="1.0" encoding="UTF-8" standalone="no"?>
<svg width="22px" height="30px" viewBox="0 0 22 30" version="1.1" xmlns="http://www.w3.org/2000/svg" xmlns:xlink="http://www.w3.org/1999/xlink" xmlns:sketch="http://www.bohemiancoding.com/sketch/ns">
    <!-- Generator: Sketch 3.2.2 (9983) - http://www.bohemiancoding.com/sketch -->
    <title>bank</title>
    <desc>Created with Sketch.</desc>
    <defs></defs>
    <g id="p" stroke="none" stroke-width="1" fill="none" fill-rule="evenodd" sketch:type="MSPage">
        <g id="bank" sketch:type="MSLayerGroup" fill="#888888">
            <path d="M14.2577697,7.06129387 C14.1954296,7.01529847 14.1149909,6.98330167 14.0476234,6.94130587 L14.0476234,12.3707629 C15.7036563,12.8027197 17.0037477,13.2436756 17.9308044,13.6966303 C19.2047532,14.319568 20.2011883,15.1714829 20.9211152,16.2513749 C21.641042,17.3312669 22,18.6661334 22,20.2549745 C22,21.6948305 21.5696527,23.0436956 20.708958,24.3015698 C19.8472578,25.5594441 18.6296161,26.4923508 17.0530165,27.1062894 C16.1752285,27.4462554 15.1657221,27.6822318 14.0476234,27.8332167 L14.0476234,30 L12.0366545,30 L12.0366545,27.9942006 C11.7480804,28.0041996 11.4695612,28.0221978 11.1669104,28.0221978 C10.7747715,28.0221978 10.3967093,28.010199 10.0256856,27.9922008 L10.0256856,30 L8.01471664,30 L8.01471664,27.7712229 C6.08921389,27.4452555 4.50758684,26.7993201 3.28592322,25.8224178 C1.45191956,24.3535646 0.356946984,22.2137786 1.77635684e-15,19.4010599 L5.31599634,18.9211079 C5.63473492,20.5789421 6.28427788,21.7958204 7.26261426,22.5727427 C7.49387569,22.7567243 7.74625229,22.9137086 8.01471664,23.0526947 L8.01471664,16.1513849 C5.94040219,15.5614439 4.4191042,14.8735126 3.46992687,14.0845915 C1.80886654,12.7017298 0.977330896,11.0158984 0.977330896,9.02609739 C0.977330896,7.74622538 1.36846435,6.54834517 2.14972578,5.43445655 C2.9309872,4.31956804 4.05612431,3.47065293 5.52714808,2.88771123 C6.27522852,2.59074093 7.10575868,2.37076292 8.01371115,2.22577742 L8.01371115,-3.55271368e-15 L10.0246801,-3.55271368e-15 L10.0246801,2.04179582 C10.2991773,2.02979702 10.5656307,2.01179882 10.8511883,2.01179882 C11.2584095,2.01179882 11.6525594,2.02279772 12.035649,2.04279572 L12.035649,-3.55271368e-15 L14.0466179,-3.55271368e-15 L14.0466179,2.26277372 C15.8977148,2.57474253 17.3928702,3.17868213 18.5200183,4.08559144 C20.2363803,5.46945305 21.1382998,7.31426857 21.2227605,9.6240376 L15.7579525,9.8470153 C15.528702,8.55514449 15.0279707,7.62623738 14.2577697,7.06129387 L14.2577697,7.06129387 Z M7.99889074,7 C7.61952302,7.12723269 7.26234054,7.27208221 6.95618414,7.45608025 C6.31835829,7.83679961 6,8.34573036 6,8.98385124 C6,9.56618547 6.29839157,10.0643504 6.89628397,10.4773673 C7.14475874,10.6496207 7.52079867,10.8238317 8,11 L7.99889074,7 L7.99889074,7 Z M14.9253129,23.3640898 C15.6431167,22.6255789 16,21.7609548 16,20.7702173 C16,20.1343071 15.8482035,19.5935162 15.5470327,19.1478447 C15.2507065,18.7085857 14.7323375,18.324902 14,18 L14,24 C14.348809,23.8311364 14.6661284,23.6302102 14.9253129,23.3640898 L14.9253129,23.3640898 Z M10,23.9267845 C10.375,23.9762544 10.771,24 11.189,24 C11.477,24 11.736,23.9782332 12,23.9594346 L12,17.4759011 C11.428,17.334417 10.783,17.1810601 10,17 L10,23.9267845 L10,23.9267845 Z M10.768,6 C10.497,6 10.251,6.02220264 10,6.04017621 L10,11.4829956 C10.591,11.6532159 11.251,11.8255507 11.998,11.9989427 C11.998,12 12,12 12,12 L12,6.08246696 C11.619,6.03277533 11.215,6 10.768,6 L10.768,6 Z" id="Shape" sketch:type="MSShapeGroup"></path>
        </g>
    </g>
</svg>

<svg width="22" height="30" xmlns="http://www.w3.org/2000/svg"><path d="M14.258 7.061c-.063-.046-.143-.078-.21-.12v5.43c1.656.432 2.956.873 3.883 1.326 1.274.623 2.27 1.474 2.99 2.554.72 1.08 1.079 2.415 1.079 4.004 0 1.44-.43 2.789-1.291 4.047-.862 1.257-2.08 2.19-3.656 2.804-.878.34-1.887.576-3.005.727V30h-2.011v-2.006c-.289.01-.567.028-.87.028-.392 0-.77-.012-1.141-.03V30H8.015v-2.229c-1.926-.326-3.507-.972-4.73-1.949C1.453 24.354.358 22.214 0 19.402l5.316-.48c.319 1.657.968 2.874 1.947 3.65.23.185.483.342.752.48v-6.9c-2.075-.59-3.596-1.278-4.545-2.067C1.809 12.702.977 11.015.977 9.026c0-1.28.391-2.478 1.173-3.592.781-1.114 1.906-1.963 3.377-2.546a11.762 11.762 0 0 1 2.487-.662V0h2.01v2.042c.275-.012.542-.03.827-.03.407 0 .802.01 1.185.03V0h2.01v2.263c1.852.312 3.347.916 4.474 1.823 1.716 1.383 2.618 3.228 2.703 5.538l-5.465.223c-.23-1.292-.73-2.22-1.5-2.786ZM7.998 7c-.378.127-.736.272-1.042.456-.638.38-.956.89-.956 1.528 0 .582.298 1.08.896 1.493.249.173.625.347 1.104.523l-.001-4Zm6.927 16.364C15.643 22.626 16 21.761 16 20.77c0-.636-.152-1.176-.453-1.622-.296-.44-.815-.823-1.547-1.148v6c.349-.169.666-.37.925-.636ZM10 23.927c.375.05.771.073 1.189.073.288 0 .547-.022.811-.04v-6.484c-.572-.142-1.217-.295-2-.476v6.927ZM10.768 6c-.271 0-.517.022-.768.04v5.443A39.387 39.387 0 0 0 12 12V6.082A9.41 9.41 0 0 0 10.768 6Z" fill="#888" fill-rule="evenodd"/></svg>
